material/.icons/material/network-off-outline.svg

<svg xmlns="http://www.w3.org/2000/svg" viewBox="0 0 24 24"><path d="M1.04 5.27L5 9.23V15a2 2 0 002 2h4v2h-1a1 1 0 00-1 1H2v2h7a1 1 0 001 1h4a1 1 0 001-1h2.77l2 2 1.27-1.28L2.32 4 1.04 5.27M7 11.23L10.77 15H7v-3.77M15 20a1 1 0 00-1-1h-1v-1.77L15.77 20H15m7 0v1.14L20.86 20H22M7 6.14L5.14 4.28C5.43 3.53 6.16 3 7 3h10a2 2 0 012 2v10c0 .85-.53 1.57-1.28 1.86L15.86 15H17V5H7v1.14z"/></svg>

<?xml version="1.0" encoding="UTF-8"?><!DOCTYPE svg PUBLIC "-//W3C//DTD SVG 1.1//EN" "http://www.w3.org/Graphics/SVG/1.1/DTD/svg11.dtd"><svg xmlns="http://www.w3.org/2000/svg" xmlns:xlink="http://www.w3.org/1999/xlink" version="1.1" id="mdi-network-off-outline" width="24" height="24" viewBox="0 0 24 24"><path d="M1.04,5.27L5,9.23V15A2,2 0 0,0 7,17H11V19H10A1,1 0 0,0 9,20H2V22H9A1,1 0 0,0 10,23H14A1,1 0 0,0 15,22H17.77L19.77,24L21.04,22.72L2.32,4L1.04,5.27M7,11.23L10.77,15H7V11.23M15,20A1,1 0 0,0 14,19H13V17.23L15.77,20H15M22,20V21.14L20.86,20H22M7,6.14L5.14,4.28C5.43,3.53 6.16,3 7,3H17A2,2 0 0,1 19,5V15C19,15.85 18.47,16.57 17.72,16.86L15.86,15H17V5H7V6.14Z" /></svg>
